Sources/FrostedUI/Resources/Icons.xcassets/infoCircle24.imageset/info-circle-24.svg

<svg width="24" height="24" viewBox="0 0 24 24" fill="none" xmlns="http://www.w3.org/2000/svg" data-fui-icon="true">
  <path
    d="M12 1C18.0751 1 23 5.92487 23 12C23 18.0751 18.0751 23 12 23C5.92487 23 1 18.0751 1 12C1 5.92487 5.92487 1 12 1ZM12 2.5C6.75329 2.5 2.5 6.75329 2.5 12C2.5 17.2467 6.75329 21.5 12 21.5C17.2467 21.5 21.5 17.2467 21.5 12C21.5 6.75329 17.2467 2.5 12 2.5ZM12 9C12.4142 9 12.75 9.33579 12.75 9.75V16.5H14.25C14.6642 16.5001 15 16.8358 15 17.25C14.9999 17.6641 14.6641 17.9999 14.25 18H9.75C9.33583 18 9.00007 17.6642 9 17.25C9 16.8358 9.33579 16.5 9.75 16.5H11.25V10.5H9.75C9.33579 10.5 9 10.1642 9 9.75C9 9.33579 9.33579 9 9.75 9H12ZM12 6.00391C12.5522 6.00391 12.9999 6.45168 13 7.00391C13 7.55619 12.5523 8.00391 12 8.00391C11.4477 8.00391 11 7.55619 11 7.00391C11.0001 6.45168 11.4478 6.00391 12 6.00391Z"
    fill="currentColor"
  />
</svg>

<svg xmlns="http://www.w3.org/2000/svg" width="24" height="24" fill="none" data-fui-icon="true" viewBox="0 0 24 24"><path fill="currentColor" d="M12 1c6.075 0 11 4.925 11 11s-4.925 11-11 11S1 18.075 1 12 5.925 1 12 1m0 1.5a9.5 9.5 0 1 0 0 19 9.5 9.5 0 0 0 0-19M12 9a.75.75 0 0 1 .75.75v6.75h1.5a.75.75 0 0 1 0 1.5h-4.5a.75.75 0 0 1 0-1.5h1.5v-6h-1.5a.75.75 0 0 1 0-1.5zm0-2.996a1 1 0 1 1 0 2 1 1 0 0 1 0-2"/></svg>
